src/themes/images/2023/separator-rules.svg

<svg width="38" height="244" viewBox="0 0 38 244" fill="none" xmlns="http://www.w3.org/2000/svg">
<path d="M38 0H0V244H38V0Z" fill="#17042B"/>
<path d="M19.5 125.305C20.7316 125.305 21.73 124.307 21.73 123.075C21.73 121.844 20.7316 120.845 19.5 120.845C18.2684 120.845 17.27 121.844 17.27 123.075C17.27 124.307 18.2684 125.305 19.5 125.305Z" fill="#FF0F1D"/>
<path d="M17.21 115.179H21.37C21.37 115.179 19.29 55.8089 19.29 57.1026C19.29 58.3963 17.21 115.179 17.21 115.179Z" fill="#341456"/>
<path d="M21.37 130.106H17.21C17.21 130.106 19.29 189.477 19.29 188.183C19.29 186.889 21.37 130.106 21.37 130.106Z" fill="#341456"/>
<path d="M26.89 57.2827H11.37V189.739H26.89V57.2827Z" stroke="#341456" stroke-miterlimit="10"/>
<path d="M11 48.3497H28" stroke="#495685" stroke-miterlimit="10"/>
<path d="M26.63 42.6345H12.37" stroke="#495685" stroke-miterlimit="10"/>
<path d="M25.25 36.9193H13.75" stroke="#495685" stroke-miterlimit="10"/>
<path d="M23.88 31.1959H15.12" stroke="#495685" stroke-miterlimit="10"/>
<path d="M22.51 25.4808H16.49" stroke="#495685" stroke-miterlimit="10"/>
<path d="M21.14 19.7656H17.86" stroke="#495685" stroke-miterlimit="10"/>
<path d="M19.76 14.0422H19.24" stroke="#495685" stroke-miterlimit="10"/>
<path d="M18.39 8.32709H20.61" stroke="#495685" stroke-miterlimit="10"/>
<path d="M28 193.767H11" stroke="#495685" stroke-miterlimit="10"/>
<path d="M12.37 199.49H26.63" stroke="#495685" stroke-miterlimit="10"/>
<path d="M13.75 205.206H25.25" stroke="#495685" stroke-miterlimit="10"/>
<path d="M15.12 210.921H23.88" stroke="#495685" stroke-miterlimit="10"/>
<path d="M16.49 216.644H22.51" stroke="#495685" stroke-miterlimit="10"/>
<path d="M17.86 222.359H21.14" stroke="#495685" stroke-miterlimit="10"/>
<path d="M19.24 228.075H19.76" stroke="#495685" stroke-miterlimit="10"/>
<path d="M20.61 233.798H18.39" stroke="#495685" stroke-miterlimit="10"/>
</svg>

<?xml version="1.0" encoding="UTF-8"?>
<svg fill="none" viewBox="0 0 38 244" xmlns="http://www.w3.org/2000/svg">
<path d="M38 0H0V244H38V0Z" fill="#17042B"/>
<path d="m19.5 125.3c1.2316 0 2.23-0.998 2.23-2.23 0-1.231-0.9984-2.23-2.23-2.23s-2.23 0.999-2.23 2.23c0 1.232 0.9984 2.23 2.23 2.23z" fill="#FF0F1D"/>
<path d="m17.21 115.18h4.16s-2.08-59.37-2.08-58.076-2.08 58.076-2.08 58.076z" fill="#341456"/>
<path d="m21.37 130.11h-4.16s2.08 59.371 2.08 58.077 2.08-58.077 2.08-58.077z" fill="#341456"/>
<path d="m26.89 57.283h-15.52v132.46h15.52v-132.46z" stroke="#341456" stroke-miterlimit="10"/>
<path d="m11 48.35h17" stroke="#495685" stroke-miterlimit="10"/>
<path d="m26.63 42.634h-14.26" stroke="#495685" stroke-miterlimit="10"/>
<path d="m25.25 36.919h-11.5" stroke="#495685" stroke-miterlimit="10"/>
<path d="m23.88 31.196h-8.76" stroke="#495685" stroke-miterlimit="10"/>
<path d="m22.51 25.481h-6.02" stroke="#495685" stroke-miterlimit="10"/>
<path d="m21.14 19.766h-3.28" stroke="#495685" stroke-miterlimit="10"/>
<path d="m19.76 14.042h-0.52" stroke="#495685" stroke-miterlimit="10"/>
<path d="m18.39 8.3271h2.22" stroke="#495685" stroke-miterlimit="10"/>
<path d="m28 193.77h-17" stroke="#495685" stroke-miterlimit="10"/>
<path d="m12.37 199.49h14.26" stroke="#495685" stroke-miterlimit="10"/>
<path d="m13.75 205.21h11.5" stroke="#495685" stroke-miterlimit="10"/>
<path d="m15.12 210.92h8.76" stroke="#495685" stroke-miterlimit="10"/>
<path d="m16.49 216.64h6.02" stroke="#495685" stroke-miterlimit="10"/>
<path d="m17.86 222.36h3.28" stroke="#495685" stroke-miterlimit="10"/>
<path d="m19.24 228.08h0.52" stroke="#495685" stroke-miterlimit="10"/>
<path d="m20.61 233.8h-2.22" stroke="#495685" stroke-miterlimit="10"/>
</svg>
